X: 8268
T: Cormac O'Lunney's
R: reel
M: 4/4
K: Gmajor
dG G2 (3Bcd ge|dG G2 AD D2|dG G2 (3Bcd ge|dBAG EGGB|
dG G2 (3Bcd ge|dG G2 BA A2|gfed efge|dBAG EG G2||
(3Bcd gd edgd|(3Bcd gd BA A2|(3Bcd gd edge|dBAG EGGA|
(3Bcd gd edgd|(3Bcd gd BA A2|gfed efge|dBAG EG G2||

